X:1
T:Dare to Be a Daniel
T:Dare to Be a Daniel
T:Philip P. Bliss, 1873
T:P. P. B., 1873
T:PUBLIC DOMAIN
C:Philip P. Bliss, 1873
Z:P. P. B., 1873
Z:PUBLIC DOMAIN
%%score ( 1 2 ) ( 3 4 )
L:1/8
Q:1/4=120
M:4/4
K:Bb
V:1 treble nm="Treble"
V:2 treble 
V:3 bass nm="Bass"
V:4 bass 
V:1
 [Fd]3 [Fd] [Ec]2 [DB]2 | [DF]2 [DB]2 [DB]4 | [Fc]3 [Fd] [Fc]2 F2 | [Fd]8 | %4
w: 1.~Stand- ing by a|pur- pose true,|Heed- ing God’s com-|man,|
w: 2.~Man- y might- y|men are lost,|Dar- ing not to|stand,|
w: 3.~Man- y gi- ants,|great and tall,|Stalk- ing through the|land,|
w: 4.~Hold the Gos- pel|ban- ner high!|On to vic- t’ry|grand!|
 [Ee]3 [Ee] [Fe]2 [Fe]2 | [Fe]2 [Fd]2 [Fd]2 [Fd]2 | [=Ec]3 [EG] [Ec]2 [Ed]2 | [Fc]8 || %8
w: Hon- or them, the|faith- ful few! All|hail to Dan- iel’s|band!|
w: Who for God had|been a host By|join- ing Dan- iel’s|band.|
w: Head- long to the|earth would fall, If|met by Dan- iel’s|band.|
w: Sa- tan and his|hosts de- fy, And|shout for Dan- iel’s|band.|
"^Refrain" [Fd]3 [Fd] [Ec]2 [DB]2 | [DF]4 [DB]4 | [Fc]3 [Fd] [Fc]2 F2 | [Fd]8 | %12
w: Dare to be a|Dan- iel,|Dare to stand a-|lone!|
w: ||||
w: ||||
w: ||||
 [Ee]3 [Fd] [Gc]2 [FB]2 | [EA]2 [DG]2 (([Ec]2 [Ge]2)) | [Fd]3 [Fe] [Fd]2 [Ec]2 | [DB]8 |] %16
w: Dare to have a|pur- pose firm! *|Dare to make it|known.|
w: ||||
w: ||||
w: ||||
V:2
 x8 | x8 | z4 z2 F2 | x8 | x8 | x8 | x8 | x8 || x8 | x8 | z4 z2 F2 | x8 | x8 | x8 | x8 | x8 |] %16
V:3
 [B,,B,]3 [B,,B,] [B,,F,]2 [B,,F,]2 | [B,,B,]2 [B,,F,]2 [B,,F,]4 | %2
 [F,A,]3 [F,B,] [F,A,]2 (([G,B,] [A,C])) | B,8 | [G,B,]3 [G,B,] [A,C]2 [A,C]2 | %5
 B,2 [F,B,]2 [D,B,]2 [B,,B,]2 | [C,B,]3 [C,B,] [C,B,]2 [C,B,]2 | (([F,A,]4 [G,B,]2 [A,C]2)) || %8
 B,3 [B,F] [B,E]2 [B,D]2 | B,4 [B,,B,]4 | [F,A,]3 [F,B,] [F,A,]2 (([G,B,] [A,C])) | B,8 | %12
 [G,B,]3 [F,B,] [E,B,]2 [D,B,]2 | [C,C]2 [B,,B,D]2 (([A,,A,C]2 [G,,G,B,]2)) | %14
 [F,,F,B,]3 [F,,F,C] [F,,F,B,]2 [F,,F,A,]2 | [B,,F,B,]8 |] %16
V:4
 x8 | x8 | x8 | (B,3 A, G,2 F,2) | x8 | B,2 z2 z4 | x8 | x8 || B,3 z z4 | B,4 z4 | x8 | %11
 (B,3 A, G,2 F,2) | x8 | x8 | x8 | x8 |] %16

